icons/svg/shape-difference.svg

<svg width="24" height="24" viewBox="0 0 24 24" fill="none" xmlns="http://www.w3.org/2000/svg">
<path d="M1.99756 5.75C1.99756 3.67893 3.67649 2 5.74756 2H12.7476C14.8186 2 16.4976 3.67893 16.4976 5.75V7.5H15.7476H11.2524C9.18137 7.5 7.50244 9.17893 7.50244 11.25V15.75V16.5H5.74756C3.67649 16.5 1.99756 14.8211 1.99756 12.75V5.75Z" fill="currentColor"/>
<path d="M7.50244 16.5H8.25244H12.7476C14.8186 16.5 16.4976 14.8211 16.4976 12.75V8.25V7.5H18.2524C20.3235 7.5 22.0024 9.17893 22.0024 11.25V18.25C22.0024 20.3211 20.3235 22 18.2524 22H11.2524C9.18137 22 7.50244 20.3211 7.50244 18.25V16.5Z" fill="currentColor"/>
</svg>

<svg xmlns="http://www.w3.org/2000/svg" width="24" height="24" fill="none" viewBox="0 0 24 24"><path fill="currentColor" d="M1.998 5.75A3.75 3.75 0 0 1 5.748 2h7a3.75 3.75 0 0 1 3.75 3.75V7.5h-5.246a3.75 3.75 0 0 0-3.75 3.75v5.25H5.748a3.75 3.75 0 0 1-3.75-3.75z"/><path fill="currentColor" d="M7.502 16.5h5.246a3.75 3.75 0 0 0 3.75-3.75V7.5h1.754a3.75 3.75 0 0 1 3.75 3.75v7a3.75 3.75 0 0 1-3.75 3.75h-7a3.75 3.75 0 0 1-3.75-3.75z"/></svg>
